development/store/images/logo.svg

<svg width="197" height="94" viewBox="0 0 197 94" fill="none" xmlns="http://www.w3.org/2000/svg">
<g clip-path="url(#clip0_1_2)">
<rect width="197" height="94" fill="white"/>
<path d="M14.1314 28.3588V32.6174H5.00593V38.2828H13.7512V42.5413H5.00593V49.4615H14.1314V53.7201H0.0629578V28.3588H14.1314Z" fill="#FF7502"/>
<path d="M32.3859 28.3588V32.6174H23.8688V53.7201H18.9259V28.3588H32.3859Z" fill="#FF7502"/>
<path d="M34.2699 52.8075V47.028C36.095 48.8785 38.3256 49.8037 40.9619 49.8037C42.9391 49.8037 44.6881 49.2207 46.209 48.0547C47.7553 46.8886 48.7059 45.241 49.0607 43.1117H37.6919V38.8531H48.9847C48.6298 36.7745 47.7046 35.1649 46.209 34.0242C44.7135 32.8582 43.0278 32.2752 41.152 32.2752C38.4397 32.2752 36.1456 33.2258 34.2699 35.1269V29.3474C36.2977 28.3081 38.5031 27.7885 40.8858 27.7885C44.8656 27.7885 48.0215 28.9038 50.3535 31.1345C51.5449 32.3005 52.4701 33.7707 53.1292 35.5451C53.8136 37.2942 54.1558 39.132 54.1558 41.0585C54.1558 45.0889 52.901 48.3208 50.3915 50.7543C48.0341 53.1117 44.8782 54.2904 40.9239 54.2904C38.5411 54.2904 36.3231 53.7961 34.2699 52.8075Z" fill="#FF7502"/>
<path d="M84.9594 47.028V52.8075C83.0837 53.7961 80.9924 54.2904 78.6857 54.2904C74.9848 54.2904 71.8923 53.1117 69.4081 50.7543C66.6958 48.1434 65.3397 44.9114 65.3397 41.0585C65.3397 36.952 66.6958 33.644 69.4081 31.1345C71.7909 28.9038 74.8961 27.7885 78.7237 27.7885C80.9544 27.7885 83.033 28.3081 84.9594 29.3474V35.1269C83.3118 33.2258 81.2712 32.2752 78.8378 32.2752C76.3536 32.2752 74.3257 33.1497 72.7541 34.8988C71.2079 36.6225 70.4347 38.701 70.4347 41.1345C70.4347 43.7961 71.2966 45.9127 73.0203 47.4843C74.744 49.0306 76.7465 49.8037 79.0279 49.8037C81.4106 49.8037 83.3878 48.8785 84.9594 47.028Z" fill="#A7BC0D"/>
<path d="M103.192 32.6174H97.4886V53.7201H92.5456V32.6174H86.8422V28.3588H103.192V32.6174Z" fill="#A7BC0D"/>
<path d="M103.511 28.3588H109.29L115.716 41.1345L121.153 28.3588H126.553L114.804 53.7201H109.404L112.94 46.6478L103.511 28.3588Z" fill="#A7BC0D"/>
<path d="M129.997 28.3588H147.107V49.4615H149.769V59.4235H145.206V53.7201H129.617V59.4235H125.054V49.4615C125.916 49.4869 126.702 49.1827 127.412 48.549C128.121 47.8899 128.679 47.0534 129.085 46.0394C129.693 44.4932 129.997 42.2752 129.997 39.3855V28.3588ZM134.788 32.6174V39.3855C134.788 42.554 134.497 44.9114 133.914 46.4577C133.457 47.6237 132.798 48.625 131.936 49.4615H142.165V32.6174H134.788Z" fill="#A7BC0D"/>
<path d="M153.036 28.3588H157.979V45.3931L171.971 27.7885H175.394V53.7201H170.451V36.6098L156.458 54.2144H153.036V28.3588Z" fill="#A7BC0D"/>
<path d="M196.999 28.3588V53.7201H192.056V43.9102H191.144L184.68 53.7201H178.748L186.277 43.4539C185.263 43.3018 184.338 42.9216 183.501 42.3132C181.6 40.9444 180.65 38.9038 180.65 36.1915C180.65 33.7327 181.486 31.7682 183.159 30.298C184.629 29.0052 186.797 28.3588 189.661 28.3588H196.999ZM192.056 32.3892H190.535C190.13 32.3892 189.737 32.4146 189.357 32.4653C188.977 32.516 188.47 32.6554 187.836 32.8835C187.202 33.0863 186.695 33.4792 186.315 34.0623C185.935 34.6199 185.745 35.3297 185.745 36.1915C185.745 38.7517 187.367 40.0318 190.612 40.0318H192.056V32.3892Z" fill="#A7BC0D"/>
<path fill-rule="evenodd" clip-rule="evenodd" d="M188.94 12.3661H0.0390625V8.1552H188.94L184.112 3.32759L187.089 0.350006L197 10.2607L187.089 20.1713L184.112 17.1937L188.94 12.3661Z" fill="url(#paint0_linear_1_2)"/>
<path d="M0 79.7215C0 74.1682 4.50184 69.6664 10.0551 69.6664H196.999V83.5945C196.999 89.1478 192.497 93.6497 186.944 93.6497H10.0551C4.50185 93.6497 0 89.1478 0 83.5945V79.7215Z" fill="url(#paint1_linear_1_2)"/>
<path d="M17.4688 76.6788H12.2153V86.3924H10.771V75.4964H17.4688V76.6788Z" fill="#FEFEFE"/>
<path d="M18.018 82.269C18.018 81.4758 18.1727 80.7623 18.482 80.1287C18.7963 79.4951 19.2304 79.0062 19.7842 78.662C20.3429 78.3177 20.979 78.1456 21.6925 78.1456C22.795 78.1456 23.6856 78.5272 24.3641 79.2906C25.0476 80.0539 25.3893 81.0692 25.3893 82.3364V82.4337C25.3893 83.2219 25.2372 83.9304 24.9328 84.559C24.6335 85.1826 24.2019 85.669 23.6382 86.0183C23.0794 86.3675 22.4358 86.5421 21.7074 86.5421C20.6098 86.5421 19.7193 86.1605 19.0358 85.3971C18.3573 84.6338 18.018 83.6235 18.018 82.3663V82.269ZM19.41 82.4337C19.41 83.3317 19.617 84.0526 20.0311 84.5964C20.4502 85.1402 21.009 85.4121 21.7074 85.4121C22.4109 85.4121 22.9697 85.1377 23.3837 84.5889C23.7978 84.0351 24.0049 83.2618 24.0049 82.269C24.0049 81.381 23.7928 80.6626 23.3688 80.1138C22.9497 79.56 22.3909 79.2831 21.6925 79.2831C21.009 79.2831 20.4577 79.555 20.0386 80.0988C19.6195 80.6426 19.41 81.4209 19.41 82.4337Z" fill="#FEFEFE"/>
<path d="M33.7439 79.4178H31.0274V86.3924H29.643V79.4178H26.9788V78.2953H33.7439V79.4178Z" fill="#FEFEFE"/>
<path d="M35.1763 82.269C35.1763 81.4758 35.331 80.7623 35.6403 80.1287C35.9546 79.4951 36.3886 79.0062 36.9424 78.662C37.5012 78.3177 38.1373 78.1456 38.8507 78.1456C39.9533 78.1456 40.8438 78.5272 41.5223 79.2906C42.2058 80.0539 42.5476 81.0692 42.5476 82.3364V82.4337C42.5476 83.2219 42.3954 83.9304 42.0911 84.559C41.7917 85.1826 41.3602 85.669 40.7964 86.0183C40.2377 86.3675 39.5941 86.5421 38.8657 86.5421C37.7681 86.5421 36.8776 86.1605 36.1941 85.3971C35.5155 84.6338 35.1763 83.6235 35.1763 82.3663V82.269ZM36.5682 82.4337C36.5682 83.3317 36.7753 84.0526 37.1894 84.5964C37.6084 85.1402 38.1672 85.4121 38.8657 85.4121C39.5691 85.4121 40.1279 85.1377 40.542 84.5889C40.9561 84.0351 41.1631 83.2618 41.1631 82.269C41.1631 81.381 40.9511 80.6626 40.527 80.1138C40.1079 79.56 39.5492 79.2831 38.8507 79.2831C38.1672 79.2831 37.6159 79.555 37.1968 80.0988C36.7778 80.6426 36.5682 81.4209 36.5682 82.4337Z" fill="#FEFEFE"/>
<path d="M45.1773 86.3924V78.2953H48.3353C49.413 78.2953 50.2386 78.4848 50.8124 78.864C51.3911 79.2382 51.6805 79.7895 51.6805 80.5179C51.6805 80.892 51.5682 81.2313 51.3437 81.5356C51.1192 81.835 50.7874 82.0645 50.3484 82.2241C50.8373 82.3389 51.229 82.5634 51.5233 82.8976C51.8227 83.2319 51.9723 83.631 51.9723 84.095C51.9723 84.8384 51.6979 85.4071 51.1491 85.8012C50.6053 86.1954 49.8345 86.3924 48.8367 86.3924H45.1773ZM46.5617 82.8378V85.2774H48.8517C49.4304 85.2774 49.862 85.1701 50.1464 84.9556C50.4357 84.7411 50.5804 84.4392 50.5804 84.0501C50.5804 83.2419 49.9867 82.8378 48.7993 82.8378H46.5617ZM46.5617 81.7302H48.3503C49.6474 81.7302 50.296 81.351 50.296 80.5927C50.296 79.8344 49.6824 79.4427 48.4551 79.4178H46.5617V81.7302Z" fill="#FEFEFE"/>
<path d="M59.8106 78.2953H61.195V86.3924H59.8106V80.4879L56.0763 86.3924H54.6918V78.2953H56.0763V84.2072L59.8106 78.2953Z" fill="#FEFEFE"/>
<path d="M68.8462 84.559L71.6001 78.2953H73.3288V86.3924H71.9444V80.5029L69.3251 86.3924H68.3673L65.6956 80.3757V86.3924H64.3112V78.2953H66.1072L68.8462 84.559Z" fill="#FEFEFE"/>
<path d="M87.5086 86.3924H86.1242V82.935H82.4049V86.3924H81.0129V78.2953H82.4049V81.805H86.1242V78.2953H87.5086V86.3924Z" fill="#FEFEFE"/>
<path d="M95.504 86.3924C95.4242 86.2328 95.3594 85.9484 95.3095 85.5393C94.6659 86.2078 93.8976 86.5421 93.0045 86.5421C92.2063 86.5421 91.5502 86.3176 91.0364 85.8686C90.5275 85.4146 90.2731 84.8409 90.2731 84.1474C90.2731 83.3042 90.5923 82.6507 91.2309 82.1867C91.8745 81.7177 92.7775 81.4832 93.94 81.4832H95.287V80.8471C95.287 80.3632 95.1423 79.9791 94.853 79.6947C94.5636 79.4053 94.1371 79.2606 93.5733 79.2606C93.0794 79.2606 92.6653 79.3854 92.331 79.6348C91.9968 79.8843 91.8296 80.1861 91.8296 80.5403H90.4377C90.4377 80.1362 90.5799 79.7471 90.8643 79.3729C91.1536 78.9937 91.5428 78.6944 92.0317 78.4749C92.5256 78.2553 93.0669 78.1456 93.6556 78.1456C94.5886 78.1456 95.3195 78.3801 95.8483 78.849C96.3771 79.313 96.6515 79.9541 96.6715 80.7723V84.4991C96.6715 85.2425 96.7663 85.8337 96.9559 86.2727V86.3924H95.504ZM93.2066 85.3373C93.6406 85.3373 94.0522 85.225 94.4414 85.0005C94.8305 84.776 95.1124 84.4841 95.287 84.1249V82.4636H94.2019C92.5056 82.4636 91.6575 82.96 91.6575 83.9528C91.6575 84.3869 91.8022 84.7261 92.0916 84.9706C92.3809 85.215 92.7526 85.3373 93.2066 85.3373Z" fill="#FEFEFE"/>
<path d="M111.143 78.4075C111.143 78.9363 111.011 79.4028 110.747 79.8069C110.487 80.211 110.128 80.5353 109.669 80.7798C110.188 81.0342 110.599 81.3835 110.904 81.8275C111.208 82.2665 111.36 82.7879 111.36 83.3915C111.36 84.3644 111.023 85.1327 110.35 85.6965C109.681 86.2602 108.758 86.5421 107.581 86.5421C106.399 86.5421 105.466 86.2602 104.782 85.6965C104.099 85.1277 103.757 84.3594 103.757 83.3915C103.757 82.8078 103.907 82.2915 104.206 81.8425C104.505 81.3934 104.929 81.0392 105.478 80.7798C105.014 80.5353 104.65 80.211 104.385 79.8069C104.121 79.4028 103.989 78.9363 103.989 78.4075C103.989 77.4596 104.311 76.7112 104.954 76.1625C105.598 75.6137 106.466 75.3393 107.559 75.3393C108.661 75.3393 109.534 75.6137 110.178 76.1625C110.821 76.7112 111.143 77.4596 111.143 78.4075ZM108.831 83.1895C108.831 82.7405 108.713 82.3962 108.479 82.1568C108.249 81.9123 107.945 81.7901 107.566 81.7901C107.187 81.7901 106.88 81.9123 106.646 82.1568C106.411 82.3962 106.294 82.7405 106.294 83.1895C106.294 83.6235 106.411 83.9678 106.646 84.2222C106.885 84.4717 107.197 84.5964 107.581 84.5964C107.955 84.5964 108.257 84.4717 108.486 84.2222C108.716 83.9728 108.831 83.6285 108.831 83.1895ZM107.559 77.285C107.219 77.285 106.96 77.3972 106.78 77.6217C106.606 77.8413 106.518 78.1481 106.518 78.5422C106.518 78.9314 106.608 79.2457 106.788 79.4851C106.967 79.7246 107.232 79.8444 107.581 79.8444C107.925 79.8444 108.182 79.7246 108.352 79.4851C108.526 79.2457 108.614 78.9314 108.614 78.5422C108.614 78.1531 108.524 77.8462 108.344 77.6217C108.17 77.3972 107.908 77.285 107.559 77.285Z" fill="#FEFEFE"/>
<path d="M121.002 81.9397C121.002 83.4115 120.67 84.5465 120.007 85.3447C119.348 86.143 118.418 86.5421 117.215 86.5421C116.003 86.5421 115.065 86.1405 114.401 85.3373C113.738 84.534 113.406 83.4015 113.406 81.9397V79.9491C113.406 78.4774 113.735 77.3424 114.394 76.5441C115.058 75.7459 115.993 75.3467 117.2 75.3467C118.408 75.3467 119.343 75.7484 120.007 76.5516C120.67 77.3548 121.002 78.4898 121.002 79.9566V81.9397ZM118.48 79.6273C118.48 78.8441 118.378 78.2603 118.173 77.8762C117.969 77.487 117.644 77.2925 117.2 77.2925C116.766 77.2925 116.449 77.4721 116.25 77.8313C116.055 78.1905 115.951 78.7343 115.936 79.4627V82.2466C115.936 83.0598 116.038 83.656 116.242 84.0351C116.447 84.4093 116.771 84.5964 117.215 84.5964C117.644 84.5964 117.961 84.4143 118.166 84.0501C118.37 83.6809 118.475 83.1047 118.48 82.3214V79.6273Z" fill="#FEFEFE"/>
<path d="M133.281 78.2953H134.665V86.3924H133.281V80.4879L129.547 86.3924H128.162V78.2953H129.547V84.2072L133.281 78.2953Z" fill="#FEFEFE"/>
<path d="M142.349 86.3924V78.2953H145.508C146.585 78.2953 147.411 78.4848 147.985 78.864C148.563 79.2382 148.853 79.7895 148.853 80.5179C148.853 80.892 148.74 81.2313 148.516 81.5356C148.291 81.835 147.96 82.0645 147.521 82.2241C148.01 82.3389 148.401 82.5634 148.695 82.8976C148.995 83.2319 149.145 83.631 149.145 84.095C149.145 84.8384 148.87 85.4071 148.321 85.8012C147.778 86.1954 147.007 86.3924 146.009 86.3924H142.349ZM143.734 82.8378V85.2774H146.024C146.603 85.2774 147.034 85.1701 147.319 84.9556C147.608 84.7411 147.753 84.4392 147.753 84.0501C147.753 83.2419 147.159 82.8378 145.971 82.8378H143.734ZM143.734 81.7302H145.522C146.82 81.7302 147.468 81.351 147.468 80.5927C147.468 79.8344 146.855 79.4427 145.627 79.4178H143.734V81.7302Z" fill="#FEFEFE"/>
<path d="M153.256 81.0866H155.359C156.277 81.0966 157.003 81.3361 157.537 81.805C158.07 82.274 158.337 82.9101 158.337 83.7133C158.337 84.5216 158.063 85.1701 157.514 85.6591C156.965 86.148 156.227 86.3924 155.299 86.3924H151.872V78.2953H153.256V81.0866ZM161.226 86.3924H159.834V78.2953H161.226V86.3924ZM153.256 82.2166V85.2624H155.314C155.833 85.2624 156.234 85.1302 156.519 84.8658C156.803 84.5964 156.945 84.2297 156.945 83.7657C156.945 83.3167 156.806 82.95 156.526 82.6656C156.252 82.3763 155.865 82.2266 155.366 82.2166H153.256Z" fill="#FEFEFE"/>
<path d="M165.921 78.2953V85.2624H168.885V78.2953H170.269V85.2624H173.225V78.2953H174.617V86.3924H164.529V78.2953H165.921Z" fill="#FEFEFE"/>
<path d="M180.929 86.5421C179.831 86.5421 178.938 86.1829 178.249 85.4645C177.561 84.7411 177.217 83.7757 177.217 82.5684V82.3139C177.217 81.5107 177.369 80.7948 177.673 80.1661C177.983 79.5325 178.412 79.0386 178.96 78.6844C179.514 78.3252 180.113 78.1456 180.756 78.1456C181.809 78.1456 182.627 78.4923 183.211 79.1858C183.795 79.8793 184.087 80.8721 184.087 82.1642V82.7405H178.601C178.621 83.5387 178.853 84.1848 179.297 84.6787C179.746 85.1676 180.315 85.4121 181.003 85.4121C181.492 85.4121 181.906 85.3123 182.246 85.1128C182.585 84.9132 182.882 84.6488 183.136 84.3195L183.982 84.9781C183.303 86.0208 182.286 86.5421 180.929 86.5421ZM180.756 79.2831C180.198 79.2831 179.729 79.4876 179.35 79.8967C178.97 80.3008 178.736 80.8696 178.646 81.603H182.702V81.4982C182.662 80.7948 182.473 80.251 182.133 79.8668C181.794 79.4777 181.335 79.2831 180.756 79.2831Z" fill="#FEFEFE"/>
<path d="M188.011 83.3167H186.761L186.664 75.4964H188.116L188.011 83.3167ZM186.612 85.6965C186.612 85.472 186.679 85.2849 186.814 85.1352C186.953 84.9805 187.158 84.9032 187.427 84.9032C187.697 84.9032 187.901 84.9805 188.041 85.1352C188.181 85.2849 188.25 85.472 188.25 85.6965C188.25 85.921 188.181 86.1081 188.041 86.2577C187.901 86.4024 187.697 86.4748 187.427 86.4748C187.158 86.4748 186.953 86.4024 186.814 86.2577C186.679 86.1081 186.612 85.921 186.612 85.6965Z" fill="#FEFEFE"/>
</g>
<defs>
<linearGradient id="paint0_linear_1_2" x1="197.001" y1="10.2607" x2="0.0390604" y2="10.2606" gradientUnits="userSpaceOnUse">
<stop stop-color="#FF7502"/>
<stop offset="1" stop-color="#FF7502" stop-opacity="0"/>
</linearGradient>
<linearGradient id="paint1_linear_1_2" x1="37.9447" y1="93.6497" x2="48.7824" y2="43.8589" gradientUnits="userSpaceOnUse">
<stop stop-color="#FF5426"/>
<stop offset="1" stop-color="#FFA101"/>
</linearGradient>
<clipPath id="clip0_1_2">
<rect width="197" height="94" fill="white"/>
</clipPath>
</defs>
</svg>

<svg xmlns="http://www.w3.org/2000/svg" width="197" height="94" fill="none" viewBox="0 0 197 94">
    <g clip-path="url(#clip0_1_2)">
        <path fill="#FF7502"
              d="M14.131 28.359v4.258H5.006v5.666h8.745v4.258H5.006v6.92h9.125v4.26H.063V28.358h14.068ZM32.386 28.359v4.258h-8.517V53.72h-4.943V28.36h13.46ZM34.27 52.807v-5.779c1.825 1.85 4.056 2.776 6.692 2.776 1.977 0 3.726-.583 5.247-1.75 1.546-1.165 2.497-2.813 2.852-4.942H37.69v-4.259h11.294c-.355-2.078-1.28-3.688-2.776-4.829-1.495-1.166-3.181-1.749-5.057-1.749-2.712 0-5.006.95-6.882 2.852v-5.78c2.028-1.039 4.233-1.559 6.616-1.559 3.98 0 7.136 1.116 9.467 3.346 1.192 1.166 2.117 2.637 2.776 4.411a14.996 14.996 0 0 1 1.027 5.514c0 4.03-1.255 7.262-3.764 9.695-2.358 2.358-5.514 3.536-9.468 3.536-2.383 0-4.6-.494-6.654-1.483Z"/>
        <path fill="#A7BC0D"
              d="M84.96 47.028v5.78c-1.876.988-3.968 1.482-6.274 1.482-3.701 0-6.794-1.178-9.278-3.536-2.712-2.61-4.068-5.843-4.068-9.695 0-4.107 1.356-7.415 4.068-9.924 2.383-2.231 5.488-3.347 9.316-3.347 2.23 0 4.309.52 6.235 1.56v5.779c-1.647-1.901-3.688-2.852-6.121-2.852-2.484 0-4.512.875-6.084 2.624-1.546 1.724-2.32 3.802-2.32 6.236 0 2.661.863 4.778 2.586 6.35 1.724 1.546 3.727 2.319 6.008 2.319 2.383 0 4.36-.925 5.931-2.776ZM103.192 32.617h-5.703V53.72h-4.943V32.617h-5.704V28.36h16.35v4.258ZM103.511 28.359h5.779l6.426 12.776 5.437-12.776h5.4L114.804 53.72h-5.4l3.536-7.072-9.429-18.29ZM129.997 28.359h17.11V49.46h2.662v9.962h-4.563V53.72h-15.589v5.703h-4.563v-9.962c.862.026 1.648-.278 2.358-.912.709-.66 1.267-1.496 1.673-2.51.608-1.546.912-3.764.912-6.654V28.36Zm4.791 4.258v6.769c0 3.168-.291 5.525-.874 7.072a8.397 8.397 0 0 1-1.978 3.004h10.229V32.617h-7.377ZM153.036 28.359h4.943v17.034l13.992-17.605h3.423V53.72h-4.943V36.61l-13.993 17.604h-3.422V28.36ZM196.999 28.359V53.72h-4.943v-9.81h-.912l-6.464 9.81h-5.932l7.529-10.266a6.228 6.228 0 0 1-2.776-1.14c-1.901-1.37-2.851-3.41-2.851-6.123 0-2.458.836-4.423 2.509-5.893 1.47-1.293 3.638-1.94 6.502-1.94h7.338Zm-4.943 4.03h-1.521c-.405 0-.798.026-1.178.076-.38.051-.887.19-1.521.418-.634.203-1.141.596-1.521 1.18-.38.557-.57 1.267-.57 2.128 0 2.56 1.622 3.84 4.867 3.84h1.444V32.39Z"/>
        <path fill="url(#paint0_linear_1_2)" fill-rule="evenodd" d="M188.94 12.366H.04v-4.21h188.9l-4.828-4.828L187.089.35 197 10.26l-9.911 9.911-2.977-2.977 4.828-4.828Z" clip-rule="evenodd"/>
        <path fill="url(#paint1_linear_1_2)" d="M0 79.722c0-5.554 4.502-10.056 10.055-10.056H197v13.928c0 5.554-4.502 10.056-10.055 10.056H10.055C4.502 93.65 0 89.148 0 83.594v-3.872Z"/>
        <path fill="#FEFEFE"
              d="M17.469 76.679h-5.254v9.713h-1.444V75.496h6.698v1.183ZM18.018 82.269c0-.793.155-1.507.464-2.14.314-.634.748-1.123 1.302-1.467.559-.344 1.195-.516 1.909-.516 1.102 0 1.993.381 2.671 1.145.684.763 1.025 1.778 1.025 3.045v.098c0 .788-.152 1.496-.456 2.125a3.41 3.41 0 0 1-1.295 1.46c-.559.349-1.202.523-1.93.523-1.098 0-1.989-.382-2.672-1.145-.679-.763-1.018-1.773-1.018-3.03v-.098Zm1.392.165c0 .898.207 1.619.621 2.162.42.544.978.816 1.676.816.704 0 1.263-.274 1.677-.823.414-.554.62-1.327.62-2.32 0-.888-.211-1.606-.635-2.155-.42-.554-.978-.83-1.677-.83-.683 0-1.234.271-1.653.815-.42.544-.629 1.322-.629 2.335ZM33.744 79.418h-2.717v6.974h-1.384v-6.974h-2.664v-1.123h6.765v1.123ZM35.176 82.269c0-.793.155-1.507.464-2.14.315-.634.749-1.123 1.302-1.467.56-.344 1.195-.516 1.909-.516 1.102 0 1.993.381 2.671 1.145.684.763 1.026 1.778 1.026 3.045v.098c0 .788-.153 1.496-.457 2.125a3.41 3.41 0 0 1-1.295 1.46c-.558.349-1.202.523-1.93.523-1.098 0-1.988-.382-2.672-1.145-.678-.763-1.018-1.773-1.018-3.03v-.098Zm1.392.165c0 .898.207 1.619.621 2.162.42.544.978.816 1.677.816.703 0 1.262-.274 1.676-.823.414-.554.621-1.327.621-2.32 0-.888-.212-1.606-.636-2.155-.42-.554-.978-.83-1.676-.83-.684 0-1.235.271-1.654.815-.42.544-.629 1.322-.629 2.335ZM45.177 86.392v-8.097h3.158c1.078 0 1.904.19 2.477.569.58.374.869.925.869 1.654 0 .374-.113.713-.337 1.018-.225.299-.557.528-.996.688.49.115.881.34 1.175.674.3.334.45.733.45 1.197 0 .743-.275 1.312-.824 1.706-.544.394-1.315.591-2.312.591h-3.66Zm1.385-3.554v2.44h2.29c.578 0 1.01-.108 1.294-.322.29-.215.434-.517.434-.906 0-.808-.593-1.212-1.78-1.212h-2.238Zm0-1.108h1.788c1.297 0 1.946-.379 1.946-1.137 0-.759-.614-1.15-1.84-1.175h-1.894v2.312ZM59.81 78.295h1.385v8.097h-1.384v-5.904l-3.735 5.904h-1.384v-8.097h1.384v5.912l3.735-5.912ZM68.846 84.559l2.754-6.264h1.729v8.097h-1.385v-5.89l-2.619 5.89h-.958l-2.671-6.016v6.016H64.31v-8.097h1.796l2.74 6.264ZM87.509 86.392h-1.385v-3.457h-3.72v3.457h-1.391v-8.097h1.392v3.51h3.72v-3.51h1.384v8.097ZM95.504 86.392c-.08-.16-.145-.444-.195-.853-.643.669-1.411 1.003-2.305 1.003-.798 0-1.454-.224-1.968-.673-.508-.454-.763-1.028-.763-1.722 0-.843.32-1.496.958-1.96.644-.47 1.547-.704 2.709-.704h1.347v-.636c0-.484-.145-.868-.434-1.152-.29-.29-.716-.434-1.28-.434-.494 0-.908.124-1.242.374-.334.25-.501.551-.501.905h-1.392c0-.404.142-.793.426-1.167.29-.38.679-.679 1.168-.898a3.952 3.952 0 0 1 1.624-.33c.933 0 1.663.235 2.192.704.53.464.803 1.105.823 1.923V84.5c0 .744.095 1.335.285 1.774v.12h-1.452Zm-2.297-1.055c.434 0 .845-.112 1.234-.337.39-.224.671-.516.846-.875v-1.661h-1.085c-1.696 0-2.544.496-2.544 1.489 0 .434.144.773.434 1.018.289.244.66.366 1.115.366ZM111.143 78.407a2.5 2.5 0 0 1-.396 1.4c-.26.404-.619.728-1.078.973.519.254.93.603 1.235 1.047.304.44.456.96.456 1.564 0 .973-.337 1.742-1.01 2.305-.669.564-1.592.846-2.769.846-1.182 0-2.115-.282-2.799-.846-.683-.568-1.025-1.337-1.025-2.305 0-.583.15-1.1.449-1.549.299-.449.723-.803 1.272-1.062a2.883 2.883 0 0 1-1.093-.973 2.5 2.5 0 0 1-.396-1.4c0-.947.322-1.696.965-2.245.644-.548 1.512-.823 2.605-.823 1.102 0 1.975.275 2.619.823.643.55.965 1.298.965 2.245Zm-2.312 4.782c0-.448-.118-.793-.352-1.032-.23-.245-.534-.367-.913-.367s-.686.122-.92.367c-.235.24-.352.584-.352 1.032 0 .435.117.779.352 1.033.239.25.551.374.935.374.374 0 .676-.124.905-.374.23-.25.345-.593.345-1.032Zm-1.272-5.904c-.34 0-.599.112-.779.337-.174.22-.262.526-.262.92 0 .39.09.704.27.943.179.24.444.36.793.36.344 0 .601-.12.771-.36.174-.24.262-.554.262-.943 0-.389-.09-.696-.27-.92-.174-.225-.436-.337-.785-.337ZM121.002 81.94c0 1.472-.332 2.606-.995 3.405-.659.798-1.589 1.197-2.792 1.197-1.212 0-2.15-.401-2.814-1.205-.663-.803-.995-1.936-.995-3.397v-1.99c0-1.473.329-2.608.988-3.406.664-.798 1.599-1.197 2.806-1.197 1.208 0 2.143.401 2.807 1.205.663.803.995 1.938.995 3.405v1.983Zm-2.522-2.313c0-.783-.102-1.367-.307-1.75-.204-.39-.529-.584-.973-.584-.434 0-.751.18-.95.538-.195.36-.299.903-.314 1.632v2.784c0 .813.102 1.409.306 1.788.205.374.529.561.973.561.429 0 .746-.182.951-.546.204-.37.309-.945.314-1.729v-2.694ZM133.281 78.295h1.384v8.097h-1.384v-5.904l-3.734 5.904h-1.385v-8.097h1.385v5.912l3.734-5.912ZM142.349 86.392v-8.097h3.159c1.077 0 1.903.19 2.477.569.578.374.868.925.868 1.654 0 .374-.113.713-.337 1.018-.225.299-.556.528-.995.688.489.115.88.34 1.174.674.3.334.45.733.45 1.197 0 .743-.275 1.312-.824 1.706-.543.394-1.314.591-2.312.591h-3.66Zm1.385-3.554v2.44h2.29c.579 0 1.01-.108 1.295-.322.289-.215.434-.517.434-.906 0-.808-.594-1.212-1.782-1.212h-2.237Zm0-1.108h1.788c1.298 0 1.946-.379 1.946-1.137 0-.759-.613-1.15-1.841-1.175h-1.893v2.312ZM153.256 81.087h2.103c.918.01 1.644.25 2.178.718.533.469.8 1.105.8 1.908 0 .809-.274 1.457-.823 1.946-.549.489-1.287.733-2.215.733h-3.427v-8.097h1.384v2.792Zm7.97 5.305h-1.392v-8.097h1.392v8.097Zm-7.97-4.175v3.045h2.058c.519 0 .92-.132 1.205-.396.284-.27.426-.636.426-1.1 0-.45-.139-.816-.419-1.1-.274-.29-.661-.44-1.16-.45h-2.11ZM165.921 78.295v6.967h2.964v-6.967h1.384v6.967h2.956v-6.967h1.392v8.097h-10.088v-8.097h1.392ZM180.929 86.542c-1.098 0-1.991-.36-2.68-1.078-.688-.723-1.032-1.688-1.032-2.896v-.254c0-.803.152-1.52.456-2.148.31-.633.739-1.127 1.287-1.482a3.24 3.24 0 0 1 1.796-.538c1.053 0 1.871.346 2.455 1.04.584.693.876 1.686.876 2.978v.576h-5.486c.02.799.252 1.445.696 1.939.449.489 1.018.733 1.706.733.489 0 .903-.1 1.243-.3.339-.199.636-.463.89-.792l.846.658c-.679 1.043-1.696 1.564-3.053 1.564Zm-.173-7.259a1.84 1.84 0 0 0-1.406.614c-.38.404-.614.973-.704 1.706h4.056v-.105c-.04-.703-.229-1.247-.569-1.631-.339-.39-.798-.584-1.377-.584ZM188.011 83.317h-1.25l-.097-7.82h1.452l-.105 7.82Zm-1.399 2.38c0-.225.067-.412.202-.562.139-.154.344-.232.613-.232.27 0 .474.078.614.232a.79.79 0 0 1 .209.561.789.789 0 0 1-.209.562c-.14.144-.344.217-.614.217-.269 0-.474-.073-.613-.217a.806.806 0 0 1-.202-.561Z"/>
    </g>
    <defs>
        <linearGradient id="paint0_linear_1_2" x1="197.001" x2=".039" y1="10.261" y2="10.261" gradientUnits="userSpaceOnUse">
            <stop stop-color="#FF7502"/>
            <stop offset="1" stop-color="#FF7502" stop-opacity="0"/>
        </linearGradient>
        <linearGradient id="paint1_linear_1_2" x1="37.945" x2="48.782" y1="93.65" y2="43.859" gradientUnits="userSpaceOnUse">
            <stop stop-color="#FF5426"/>
            <stop offset="1" stop-color="#FFA101"/>
        </linearGradient>
        <clipPath id="clip0_1_2">
            <path fill="#fff" d="M0 0h197v94H0z"/>
        </clipPath>
    </defs>
</svg>
